icons/editor-letter-spacing-3-filled.svg

<svg width="25" height="24" viewBox="0 0 25 24" fill="none" xmlns="http://www.w3.org/2000/svg">
<g id="letter-spacing-03">
<path id="Icon" d="M2.90039 7.05358L6.35436 3.59961M6.35436 3.59961L9.80833 7.05358M6.35436 3.59961V19.7181M2.90039 16.2642L6.35436 19.7181M6.35436 19.7181L9.80833 16.2642M14.7861 17.4155H17.8337M17.8337 17.4155H20.8813M17.8337 17.4155V7.05358M17.8337 7.05358H13.2623V8.88215M17.8337 7.05358H22.1004V9.18691" stroke="black" stroke-width="2" stroke-linecap="round" stroke-linejoin="round"/>
</g>
</svg>

<svg xmlns="http://www.w3.org/2000/svg" width="25" height="24" fill="none" viewBox="0 0 25 24"><path stroke="currentColor" stroke-linecap="round" stroke-linejoin="round" stroke-width="2" d="M2.9 7.054 6.354 3.6m0 0 3.454 3.454M6.354 3.6v16.118M2.9 16.264l3.454 3.454m0 0 3.454-3.454m4.978 1.152h3.048m0 0h3.047m-3.047 0V7.054m0 0h-4.572v1.828m4.572-1.828H22.1v2.133"/></svg>
